modules/feathericon/icons/usb.svg

<svg width="8" height="14" xmlns="http://www.w3.org/2000/svg"><path d="M0 5v8c0 1 1 1 1 1h6s1 0 1-1V5c0-1-1-1-1-1V1c0-1-1-1-1-1H2S1 0 1 1v3S0 4 0 5zm5 1h1v5H5V6zM2 1h4v3H2V1z" fill="#000" fill-rule="evenodd"/></svg>

<?xml version="1.0" encoding="UTF-8"?>
<svg width="8px" height="14px" viewBox="0 0 8 14" version="1.1" xmlns="http://www.w3.org/2000/svg" xmlns:xlink="http://www.w3.org/1999/xlink">
    <!-- Generator: sketchtool 48.1 (47250) - http://www.bohemiancoding.com/sketch -->
    <title>usb</title>
    <desc>Created with sketchtool.</desc>
    <defs></defs>
    <g id="devices" stroke="none" stroke-width="1" fill="none" fill-rule="evenodd">
        <g id="usb" fill="#000000">
            <path d="M5.68430838e-14,5 C5.68430838e-14,5 2.17486074e-09,13 -1.63720459e-09,13 C2.17486078e-09,14 1,14 1,14 L7,14 C7,14 8,14 8,13 L8,5 C8,4 7,4 7,4 L7,1 C7,-5.67879077e-14 6,-5.67879077e-14 6,-5.67879077e-14 L2,1.03860989e-09 C2,1.03860989e-09 1,1.03860992e-09 1,1 L1,4 C1,4 5.68430838e-14,4 5.68430838e-14,5 Z M5,6 L6,6 L6,11 L5,11 L5,6 Z M2,1 L6,1 L6,4 L2,4 L2,1 Z" id="Shape"></path>
        </g>
    </g>
</svg>
